X:1
T:Oaksville, CM
T:Heinrich Christoph Zeuner, 1839
T:Oaksville, CM
T:Public Domain
C:Heinrich Christoph Zeuner, 1839
Z:Public Domain
%%score ( 1 2 ) ( 3 4 )
L:1/8
M:3/4
K:A
V:1 treble 
V:2 treble 
V:3 bass 
V:4 bass 
V:1
 [EA]2 | [EA]4 (ec) | (E2 F2) [EA]2 | (A2 G2) [CA]2 | [EB]4 [EB]2 | (c2 A2) [EB]2 | E2 F2 [A^d]2 | %7
 [Ge]4 [EA]2 | [EA]4 (ec) | (E2 F2) [EA]2 | (A2 G2) [CA]2 | [DF]4 [DF]2 | [CE]2 [EA]2 (AB) | %13
 (c2 d2) (ED) | [CA]4 |] %15
V:2
 x2 | x4 E2 | A4 x2 | D4 x2 | x6 | E4 x2 | c4 x2 | x6 | x4 E2 | A4 x2 | D4 x2 | x6 | x4 F2 | %13
 E4 B2 | x4 |] %15
V:3
 [A,C]2 | [A,C]4 [A,C]2 | (C2 D2) [A,C]2 | [E,B,]4 [F,A,]2 | [E,G,]4 [E,G,]2 | (A,,2 C,2) [E,G,]2 | %6
 z2 F,2 [B,,B,]2 | [E,B,]4 [A,C]2 | [A,C]4 [A,C]2 | (C2 D2) [A,C]2 | [E,B,]4 [F,A,]2 | %11
 [D,A,]4 [D,A,]2 | (A,,2 C,2) [D,A,]2 | (A,2 B,2) [E,G,]2 | [A,,A,]4 |] %15
V:4
 x2 | x6 | A,4 x2 | x6 | x6 | A,4 x2 | A,4 x2 | x6 | x6 | A,4 x2 | x6 | x6 | A,4 x2 | E,4 x2 | %14
 x4 |] %15

